X:53234 
F:http://www.vwml.org/record/HAM/5/32/34
%%VWML:HAM-5-32-34-0 
T:Death of Parker
S:Mrs Marina Russell, Upwey coll. HED Hammond
O:England
A:Dorset
N:Transcribed from HAM-02-241.gif
F:HAM-05-32-34.abc
Z:EFDSS;PJHeadford
M:6/8
L:1/8
Q:3/8=65
K:G
D|G2G B2d|c2e d B G|E2E c2B|A2A G2D|
w:Ye gods a-bove pro-tect the wi-dow * Look with pit-y down on me, help G2G B2d|c2e d B "<("">)"G|E2E c2B|A> A A G2D|
w:Help me help me out of trou**
w:me help me out of my trou-ble * And my sad ca-la-mi-ty Par-ker
(G> B) d e2 c|(A B) c dB G|GB d ed c|AB c d3|
w:was* a wild young sai-*lor For-*tune to* him has* not pro-*ved kind
d B G B2d/ d/|(c B) A AF D|G2G E2C|D2D G2||
w:Al-though he was to be hung* for un-it-y Worse than he was left be-hind W:Transcribed from HAM-02-241.gif. Words are in HAM-05-32-34.rtf. W:[Hammond makes two efforts at the scansion of line 2, above]
